contributed-vectors/talking_ben.svg

<?xml version="1.0" encoding="UTF-8" standalone="no"?>
<svg
   xmlns:dc="http://purl.org/dc/elements/1.1/"
   xmlns:cc="http://creativecommons.org/ns#"
   xmlns:rdf="http://www.w3.org/1999/02/22-rdf-syntax-ns#"
   xmlns:svg="http://www.w3.org/2000/svg"
   xmlns="http://www.w3.org/2000/svg"
   xmlns:sodipodi="http://sodipodi.sourceforge.net/DTD/sodipodi-0.dtd"
   xmlns:inkscape="http://www.inkscape.org/namespaces/inkscape"
   viewBox="0 0 192 192"
   version="1.1"
   id="svg16"
   sodipodi:docname="talking-ben.svg"
   inkscape:version="0.92.4 (5da689c313, 2019-01-14)">
  <metadata
     id="metadata20">
    <rdf:RDF>
      <cc:Work
         rdf:about="">
        <dc:format>image/svg+xml</dc:format>
        <dc:type
           rdf:resource="http://purl.org/dc/dcmitype/StillImage" />
        <dc:title></dc:title>
      </cc:Work>
    </rdf:RDF>
  </metadata>
  <sodipodi:namedview
     pagecolor="#ffffff"
     bordercolor="#666666"
     borderopacity="1"
     objecttolerance="10"
     gridtolerance="10"
     guidetolerance="10"
     inkscape:pageopacity="0"
     inkscape:pageshadow="2"
     inkscape:window-width="1920"
     inkscape:window-height="1017"
     id="namedview18"
     showgrid="true"
     inkscape:zoom="4.9166667"
     inkscape:cx="90.810884"
     inkscape:cy="100.41471"
     inkscape:window-x="-8"
     inkscape:window-y="-8"
     inkscape:window-maximized="1"
     inkscape:current-layer="svg16"
     inkscape:snap-global="true">
    <inkscape:grid
       type="xygrid"
       id="grid827"
       spacingx="4"
       spacingy="4" />
  </sodipodi:namedview>
  <defs
     id="defs4">
    <style
       id="style2">.a{fill:none;stroke:#b1b5bd;stroke-linecap:round;stroke-linejoin:round;isolation:isolate;opacity:0.63;}</style>
  </defs>
  <rect
     class="a"
     x="20"
     y="20"
     width="152"
     height="152"
     rx="10"
     id="rect6"
     style="fill:#98dc9a;opacity:1;stroke:none" />
  <path
     style="fill:#d3b69a;stroke:none;stroke-width:1px;stroke-linecap:butt;stroke-linejoin:miter;stroke-opacity:1"
     d="m 112,68 c 0,0 8.45753,-16 16,-16 16,0 14.44423,20.714807 20,32 3.37626,6.858035 8,12 8,21.49153 C 156,120 136,120 136,120 Z"
     id="path868-3"
     inkscape:connector-curvature="0"
     sodipodi:nodetypes="cssscc" />
  <path
     style="fill:#d3b69a;stroke:none;stroke-width:1px;stroke-linecap:butt;stroke-linejoin:miter;stroke-opacity:1"
     d="M 80,68 C 80,68 71.542472,52 64,52 48,52 49.555775,72.714807 44,84 40.623745,90.858035 36,96 36,105.49153 36,120 56,120 56,120 Z"
     id="path868"
     inkscape:connector-curvature="0"
     sodipodi:nodetypes="cssscc" />
  <path
     style="fill:#d3b69a"
     d="m 56,172 c 0,0 2.867941,-18.97829 8,-24 8.142431,-7.96735 16,-12 32,-12 16,0 24,4 32,12 5.07718,5.07718 8,24 8,24 z"
     id="path866"
     inkscape:connector-curvature="0"
     sodipodi:nodetypes="cccccc" />
  <circle
     class="a"
     cx="96"
     cy="96"
     r="36.5"
     id="circle10" />
  <path
     style="fill:#8e6f60;opacity:1"
     d="m 48,116 c 0,0 1.550194,-15.10039 8,-28 4,-8 4,-20 4,-24 0,0 0,-4 2,-4 2,0 2,4 2,4 0,8 -1.188849,19.00076 -4,28 -2.666892,8.53743 -12,24 -12,24 z"
     id="path906"
     inkscape:connector-curvature="0"
     sodipodi:nodetypes="cscscsc" />
  <path
     style="fill:#8e6f60;opacity:1"
     d="m 144,116 c 0,0 -1.55019,-15.10039 -8,-28 -4,-8 -4,-20 -4,-24 0,0 0,-4 -2,-4 -2,0 -2,4 -2,4 0,8 1.18885,19.00076 4,28 2.66689,8.53743 12,24 12,24 z"
     id="path906-7"
     inkscape:connector-curvature="0"
     sodipodi:nodetypes="cscscsc" />
  <path
     style="fill:#8e6f60;opacity:1"
     d="M 96 136 C 82.321532 136 74.596692 138.9576 67.554688 144.79102 C 71.922084 149.5054 80.699062 156 96 156 C 111.3318 156 120.1124 149.4803 124.4707 144.76367 C 117.49248 138.92783 109.66554 136 96 136 z "
     id="path941" />
  <path
     style="fill:#d3b69a"
     d="M 79.5 54.226562 C 77 54.280273 74.5 54.75 72 56 C 61.81068 61.09466 60 84 60 88 C 60 92 48 99.999997 48 116 C 48 148 96 148 96 148 C 96 148 144 148 144 116 C 144 100 132 92 132 88 C 132 84 130.18932 61.09466 120 56 C 117.5 54.75 115 54.280273 112.5 54.226562 C 107 54.108398 101.5 56 96 56 C 90.5 56 85 54.108398 79.5 54.226562 z "
     id="path829" />
  <path
     style="fill:#56595b;"
     d="m 96,92 c -5.962848,0 -16,4 -16,12 0,8.5375 12,16 16,16 4,0 16,-7.4625 16,-16 0,-8 -10.03715,-12 -16,-12 z"
     id="path885"
     inkscape:connector-curvature="0"
     sodipodi:nodetypes="sczcs" />
  <path
     style="fill:#4a4a4a;"
     d="m 84,108 c 0,0 -0.375463,1.36898 3.280908,5.00673 C 91.122161,116.82841 92,116 92,116 c 0,0 1.270379,-3.56562 -1.582002,-6.418 C 86.271253,105.43526 84,108 84,108 Z"
     id="path889"
     inkscape:connector-curvature="0"
     sodipodi:nodetypes="cscsc" />
  <path
     style="fill:#4a4a4a"
     d="m 108,108 c 0,0 0.37546,1.36898 -3.28091,5.00673 C 100.87784,116.82841 100,116 100,116 c 0,0 -1.270379,-3.56562 1.582,-6.418 C 105.72875,105.43526 108,108 108,108 Z"
     id="path889-2"
     inkscape:connector-curvature="0"
     sodipodi:nodetypes="cscsc" />
  <path
     style="fill:#8e6f60;stroke:none;stroke-width:1px;stroke-linecap:butt;stroke-linejoin:miter;stroke-opacity:1;opacity:0.25"
     d="M 80 60 C 68 60 63.5 68 63.5 68 L 63.496094 67.998047 C 60.681521 76.154921 60 85.568103 60 88 C 60 90.330044 55.933091 94.033916 52.533203 99.869141 C 54.041076 99.510205 71.342224 95.367734 80 92 C 85.557224 89.83833 88 86 96 86 C 104 86 106.44278 89.83833 112 92 C 120.65778 95.367734 137.95892 99.510205 139.4668 99.869141 C 136.06691 94.033916 132 90.330044 132 88 C 132 85.568103 131.31848 76.154921 128.50391 67.998047 L 128.5 68 C 128.5 68 124 60 112 60 C 106.50253 60 101.49747 64 96 64 C 90.502526 64 85.497474 60 80 60 z "
     id="path923" />
  <path
     style="fill:#56595b;"
     d="m 68,124 c 0,0 11.78363,4 16,4 4.21637,0 7.78363,-4 12,-4 4.21637,0 7.78363,4 12,4 4.21637,0 16,-4 16,-4 0,0 -11.52804,5.40112 -16,6 -4.47196,0.59888 -7.78363,-4 -12,-4 -4.21637,0 -7.528036,4.59888 -12,4 -4.471964,-0.59888 -16,-6 -16,-6 z"
     id="path959"
     inkscape:connector-curvature="0"
     sodipodi:nodetypes="czzzczzzc" />
  <path
     style="fill:#56595b;stroke-width:0.86337256"
     d="m 80.273255,70.459602 c 10.360471,0 10.360471,9.09409 10.360471,9.09409 0,0 -4.29068,5.395037 -10.633726,5.395037 -6.343046,0 -6.633726,-5.395037 -6.633726,-5.395037 0,0 -6e-6,-9.09409 6.906981,-9.09409 z"
     id="path961"
     inkscape:connector-curvature="0"
     sodipodi:nodetypes="sczcs" />
  <path
     style="fill:#ffffff;stroke-width:0.85618168"
     d="m 73.438183,79.712363 c 0,0 0,-6.849453 6.849454,-6.849453 10.27418,0 10.27418,6.849453 10.27418,6.849453 0,0 0,3.424727 -10.27418,3.424727 -6.849454,0 -6.849454,-3.424727 -6.849454,-3.424727 z"
     id="path963"
     inkscape:connector-curvature="0"
     sodipodi:nodetypes="cscsc" />
  <path
     style="opacity:1;vector-effect:none;fill:#d3b69a;fill-opacity:1;fill-rule:evenodd;paint-order:stroke fill markers"
     d="M 80.287109 72.863281 C 79.673528 72.863281 79.133575 72.93312 78.625 73.033203 C 77.038624 74.110738 76 75.929542 76 78 C 76 80.139921 77.11202 82.006668 78.789062 83.068359 C 79.252172 83.108552 79.740127 83.136719 80.287109 83.136719 C 82.591147 83.136719 84.355664 82.95862 85.742188 82.691406 C 87.118257 81.593816 88 79.904962 88 78 C 88 76.513292 87.461458 75.159278 86.572266 74.113281 C 85.091609 73.376809 83.078529 72.863281 80.287109 72.863281 z "
     id="rect965" />
  <rect
     style="opacity:1;vector-effect:none;fill:#56595b;fill-opacity:1;fill-rule:evenodd;stroke-width:0.80224979;paint-order:stroke fill markers"
     id="rect967"
     width="6.4179983"
     height="6.4179983"
     x="78.791"
     y="74.791"
     ry="3.2089992" />
  <rect
     style="opacity:1;vector-effect:none;fill:#ffffff;fill-opacity:1;fill-rule:evenodd;stroke-width:0.91011351;paint-order:stroke fill markers"
     id="rect969"
     width="3.6404541"
     height="3.6404541"
     x="77.856178"
     y="74"
     ry="1.820227" />
  <path
     style="fill:#56595b;stroke-width:0.86337256"
     d="m 111.72675,70.459602 c -10.36047,0 -10.36047,9.09409 -10.36047,9.09409 0,0 4.29068,5.395037 10.63372,5.395037 6.34305,0 6.63373,-5.395037 6.63373,-5.395037 0,0 0,-9.09409 -6.90698,-9.09409 z"
     id="path961-0"
     inkscape:connector-curvature="0"
     sodipodi:nodetypes="sczcs" />
  <path
     style="fill:#ffffff;stroke-width:0.85618168"
     d="m 118.56182,79.712363 c 0,0 0,-6.849453 -6.84945,-6.849453 -10.27418,0 -10.27418,6.849453 -10.27418,6.849453 0,0 0,3.424727 10.27418,3.424727 6.84945,0 6.84945,-3.424727 6.84945,-3.424727 z"
     id="path963-2"
     inkscape:connector-curvature="0"
     sodipodi:nodetypes="cscsc" />
  <path
     inkscape:connector-curvature="0"
     style="opacity:1;vector-effect:none;fill:#d3b69a;fill-opacity:1;fill-rule:evenodd;paint-order:stroke fill markers"
     d="m 111.71289,72.863281 c 0.61358,0 1.15354,0.06984 1.66211,0.169922 C 114.96138,74.110738 116,75.929542 116,78 c 0,2.139921 -1.11202,4.006668 -2.78906,5.068359 -0.46311,0.04019 -0.95106,0.06836 -1.49805,0.06836 -2.30403,0 -4.06855,-0.178099 -5.45508,-0.445313 C 104.88175,81.593816 104,79.904962 104,78 c 0,-1.486708 0.53855,-2.840722 1.42774,-3.886719 1.48065,-0.736472 3.49373,-1.25 6.28515,-1.25 z"
     id="rect965-7" />
  <rect
     style="opacity:1;vector-effect:none;fill:#56595b;fill-opacity:1;fill-rule:evenodd;stroke-width:0.80224979;paint-order:stroke fill markers"
     id="rect967-2"
     width="6.4179983"
     height="6.4179983"
     x="-113.209"
     y="74.791"
     ry="3.2089992"
     transform="scale(-1,1)" />
  <rect
     style="opacity:1;vector-effect:none;fill:#ffffff;fill-opacity:1;fill-rule:evenodd;stroke-width:0.91011351;paint-order:stroke fill markers"
     id="rect969-4"
     width="3.6404541"
     height="3.6404541"
     x="-114.14382"
     y="74"
     ry="1.820227"
     transform="scale(-1,1)" />
</svg>

<svg xmlns="http://www.w3.org/2000/svg" id="svg16" version="1.1" viewBox="0 0 192 192"><defs id="defs4"><style id="style2">.a{fill:none;stroke:#b1b5bd;stroke-linecap:round;stroke-linejoin:round;isolation:isolate;opacity:.63}</style></defs><rect id="rect6" width="152" height="152" x="20" y="20" class="a" rx="10" style="fill:#98dc9a;opacity:1;stroke:none"/><path id="path868-3" d="M112 68s8.458-16 16-16c16 0 14.444 20.715 20 32 3.376 6.858 8 12 8 21.492C156 120 136 120 136 120Z" style="fill:#d3b69a;stroke:none;stroke-width:1px;stroke-linecap:butt;stroke-linejoin:miter;stroke-opacity:1"/><path id="path868" d="M80 68s-8.458-16-16-16c-16 0-14.444 20.715-20 32-3.376 6.858-8 12-8 21.492C36 120 56 120 56 120Z" style="fill:#d3b69a;stroke:none;stroke-width:1px;stroke-linecap:butt;stroke-linejoin:miter;stroke-opacity:1"/><path id="path866" d="M56 172s2.868-18.978 8-24c8.142-7.967 16-12 32-12s24 4 32 12c5.077 5.077 8 24 8 24z" style="fill:#d3b69a"/><circle id="circle10" cx="96" cy="96" r="36.5" class="a"/><path id="path906" d="M48 116s1.55-15.1 8-28c4-8 4-20 4-24 0 0 0-4 2-4s2 4 2 4c0 8-1.189 19-4 28-2.667 8.537-12 24-12 24z" style="fill:#8e6f60;opacity:1"/><path id="path906-7" d="M144 116s-1.55-15.1-8-28c-4-8-4-20-4-24 0 0 0-4-2-4s-2 4-2 4c0 8 1.189 19 4 28 2.667 8.537 12 24 12 24z" style="fill:#8e6f60;opacity:1"/><path id="path941" d="M96 136c-13.678 0-21.403 2.958-28.445 8.791C71.922 149.505 80.699 156 96 156c15.332 0 24.112-6.52 28.47-11.236C117.493 138.928 109.667 136 96 136z" style="fill:#8e6f60;opacity:1"/><path id="path829" d="M79.5 54.227c-2.5.053-5 .523-7.5 1.773-10.19 5.095-12 28-12 32s-12 12-12 28c0 32 48 32 48 32s48 0 48-32c0-16-12-24-12-28s-1.81-26.905-12-32c-2.5-1.25-5-1.72-7.5-1.773C107 54.108 101.5 56 96 56s-11-1.892-16.5-1.773z" style="fill:#d3b69a"/><path id="path885" d="M96 92c-5.963 0-16 4-16 12 0 8.537 12 16 16 16s16-7.463 16-16c0-8-10.037-12-16-12z" style="fill:#56595b"/><path id="path889" d="M84 108s-.375 1.369 3.28 5.007C91.123 116.828 92 116 92 116s1.27-3.566-1.582-6.418C86.271 105.435 84 108 84 108Z" style="fill:#4a4a4a"/><path id="path889-2" d="M108 108s.375 1.369-3.28 5.007C100.877 116.828 100 116 100 116s-1.27-3.566 1.582-6.418C105.729 105.435 108 108 108 108Z" style="fill:#4a4a4a"/><path id="path923" d="M80 60c-12 0-16.5 8-16.5 8l-.004-.002C60.682 76.155 60 85.568 60 88c0 2.33-4.067 6.034-7.467 11.87C54.041 99.51 71.343 95.367 80 92c5.557-2.162 8-6 16-6s10.443 3.838 16 6c8.658 3.368 25.959 7.51 27.467 7.87C136.067 94.033 132 90.33 132 88c0-2.432-.682-11.845-3.496-20.002L128.5 68s-4.5-8-16.5-8c-5.497 0-10.503 4-16 4s-10.503-4-16-4z" style="fill:#8e6f60;stroke:none;stroke-width:1px;stroke-linecap:butt;stroke-linejoin:miter;stroke-opacity:1;opacity:.25"/><path id="path959" d="M68 124s11.784 4 16 4c4.216 0 7.784-4 12-4s7.784 4 12 4 16-4 16-4-11.528 5.401-16 6c-4.472.599-7.784-4-12-4s-7.528 4.599-12 4c-4.472-.599-16-6-16-6z" style="fill:#56595b"/><path id="path961" d="M80.273 70.46c10.36 0 10.36 9.094 10.36 9.094S86.344 84.949 80 84.949c-6.343 0-6.634-5.395-6.634-5.395s0-9.094 6.907-9.094z" style="fill:#56595b;stroke-width:.86337256"/><path id="path963" d="M73.438 79.712s0-6.85 6.85-6.85c10.274 0 10.274 6.85 10.274 6.85s0 3.425-10.274 3.425c-6.85 0-6.85-3.425-6.85-3.425z" style="fill:#fff;stroke-width:.85618168"/><path id="rect965" d="M80.287 72.863c-.613 0-1.153.07-1.662.17A5.984 5.984 0 0 0 76 78a5.98 5.98 0 0 0 2.79 5.068c.462.04.95.069 1.497.069 2.304 0 4.069-.178 5.455-.446A5.979 5.979 0 0 0 88 78c0-1.487-.539-2.84-1.428-3.887-1.48-.736-3.493-1.25-6.285-1.25z" style="opacity:1;vector-effect:none;fill:#d3b69a;fill-opacity:1;fill-rule:evenodd;paint-order:stroke fill markers"/><rect id="rect967" width="6.418" height="6.418" x="78.791" y="74.791" ry="3.209" style="opacity:1;vector-effect:none;fill:#56595b;fill-opacity:1;fill-rule:evenodd;stroke-width:.80224979;paint-order:stroke fill markers"/><rect id="rect969" width="3.64" height="3.64" x="77.856" y="74" ry="1.82" style="opacity:1;vector-effect:none;fill:#fff;fill-opacity:1;fill-rule:evenodd;stroke-width:.91011351;paint-order:stroke fill markers"/><path id="path961-0" d="M111.727 70.46c-10.36 0-10.36 9.094-10.36 9.094s4.29 5.395 10.633 5.395c6.343 0 6.634-5.395 6.634-5.395s0-9.094-6.907-9.094z" style="fill:#56595b;stroke-width:.86337256"/><path id="path963-2" d="M118.562 79.712s0-6.85-6.85-6.85c-10.274 0-10.274 6.85-10.274 6.85s0 3.425 10.274 3.425c6.85 0 6.85-3.425 6.85-3.425z" style="fill:#fff;stroke-width:.85618168"/><path id="rect965-7" d="M111.713 72.863c.613 0 1.153.07 1.662.17A5.984 5.984 0 0 1 116 78a5.98 5.98 0 0 1-2.79 5.068c-.462.04-.95.069-1.497.069-2.304 0-4.069-.178-5.455-.446A5.979 5.979 0 0 1 104 78c0-1.487.539-2.84 1.428-3.887 1.48-.736 3.493-1.25 6.285-1.25z" style="opacity:1;vector-effect:none;fill:#d3b69a;fill-opacity:1;fill-rule:evenodd;paint-order:stroke fill markers"/><rect id="rect967-2" width="6.418" height="6.418" x="-113.209" y="74.791" ry="3.209" style="opacity:1;vector-effect:none;fill:#56595b;fill-opacity:1;fill-rule:evenodd;stroke-width:.80224979;paint-order:stroke fill markers" transform="scale(-1 1)"/><rect id="rect969-4" width="3.64" height="3.64" x="-114.144" y="74" ry="1.82" style="opacity:1;vector-effect:none;fill:#fff;fill-opacity:1;fill-rule:evenodd;stroke-width:.91011351;paint-order:stroke fill markers" transform="scale(-1 1)"/></svg>
